img/small-db1eae6f.svg

<?xml version="1.0" encoding="UTF-8" standalone="no"?>
<!DOCTYPE svg PUBLIC "-//W3C//DTD SVG 1.1//EN" "http://www.w3.org/Graphics/SVG/1.1/DTD/svg11.dtd">
<svg width="100%" height="100%" viewBox="0 0 536 522" version="1.1" xmlns="http://www.w3.org/2000/svg" xmlns:xlink="http://www.w3.org/1999/xlink" xml:space="preserve" xmlns:serif="http://www.serif.com/" style="fill-rule:evenodd;clip-rule:evenodd;stroke-linejoin:round;stroke-miterlimit:2;">
    <path d="M536,20C536,8.962 527.038,0 516,0L20,0C8.962,0 0,8.962 0,20L0,502C0,513.038 8.962,522 20,522L516,522C527.038,522 536,513.038 536,502L536,20Z" style="fill:rgb(145,211,255);fill-opacity:0.3;"/>
    <path d="M436.5,393.7L436.5,128.8C436.391,108.105 419.395,91.109 398.7,91L133.8,91C113.105,91.109 96.109,108.105 96,128.8L96,393.7C96.109,414.395 113.105,431.391 133.8,431.5L398.7,431.5C419.395,431.391 436.391,414.395 436.5,393.7ZM200,289.7L247.3,346.6L313.5,261.3L398.7,374.7L133.8,374.7L200,289.7Z" style="fill:rgb(247,247,247);fill-opacity:0.2;fill-rule:nonzero;"/>
    <path d="M219,329C219,317.962 210.038,309 199,309L20,309C8.962,309 0,317.962 0,329L0,502C0,513.038 8.962,522 20,522L199,522C210.038,522 219,513.038 219,502L219,329Z" style="fill:rgb(255,165,0);"/>
    <path d="M180,471.9L180,359C180,350.1 172.7,342.9 163.9,342.9L51,342.9C42.1,342.9 34.9,350.2 34.9,359L34.9,472C34.9,480.9 42.2,488.1 51,488.1L164,488.1C172.9,488.1 180.1,480.8 180.1,472L180,471.9ZM79.3,427.6L99.4,451.8L127.6,415.5L163.9,463.8L51,463.8L79.2,427.6L79.3,427.6Z" style="fill:rgb(247,247,247);fill-opacity:0.2;fill-rule:nonzero;"/>
    <path d="M63.7,421.4C65.616,421.954 67.322,423.069 68.6,424.6C69.731,426.018 70.332,427.787 70.3,429.6C70.3,431.6 69.8,433.3 68.7,434.8C67.7,436.2 66.2,437.3 64.2,438.1C62.2,438.9 59.9,439.3 57.2,439.3C53.2,439.3 50.1,438.4 47.8,436.7C45.54,435.099 44.224,432.469 44.3,429.7C44.233,427.867 44.798,426.066 45.9,424.6C47.178,423.069 48.884,421.954 50.8,421.4C49.1,420.7 47.8,419.8 46.8,418.5C45.91,417.172 45.456,415.598 45.5,414C45.5,411.3 46.5,409.1 48.7,407.5C51.227,405.783 54.249,404.94 57.3,405.1C59.6,405.1 61.7,405.5 63.5,406.2C65.2,406.9 66.6,407.9 67.6,409.2C68.6,410.5 69.1,412.2 69.1,414C69.1,415.7 68.7,417.2 67.7,418.5C66.671,419.829 65.283,420.835 63.7,421.4ZM49,414C49,415.8 49.7,417.3 51.2,418.4C52.6,419.4 54.7,420 57.2,420C59.7,420 61.9,419.5 63.4,418.4C64.9,417.4 65.6,415.9 65.6,414C65.6,412.1 64.8,410.7 63.3,409.6C61.8,408.5 59.8,407.9 57.3,407.9C54.7,407.9 52.7,408.5 51.2,409.6C49.777,410.604 48.949,412.259 49,414ZM57.3,436.3C60.3,436.3 62.6,435.7 64.3,434.4C65.9,433.2 66.8,431.6 66.8,429.4C66.8,427.2 65.9,425.8 64.2,424.6C62.6,423.4 60.2,422.8 57.2,422.8C54.3,422.8 52,423.4 50.3,424.6C48.683,425.695 47.738,427.548 47.8,429.5C47.8,431.6 48.6,433.3 50.3,434.5C52,435.7 54.3,436.3 57.3,436.3ZM86.3,439.2C83.7,439.2 81.4,438.5 79.3,437.2C77.3,435.7 75.8,433.8 74.6,431.2C73.42,428.314 72.841,425.217 72.9,422.1C72.9,418.6 73.5,415.6 74.6,413.1C75.8,410.4 77.4,408.5 79.4,407.1C81.4,405.7 83.7,405.1 86.4,405.1C88.9,405.1 91.2,405.7 93.2,407.1C95.3,408.5 96.9,410.4 98,413.1C99.226,415.94 99.839,419.007 99.8,422.1C99.8,425.6 99.2,428.6 98,431.2C97.01,433.62 95.343,435.703 93.2,437.2C91.158,438.555 88.75,439.254 86.3,439.2ZM86.3,436C88.3,436 90,435.5 91.5,434.4C93,433.3 94.1,431.7 95,429.6C95.8,427.6 96.2,425 96.2,422.1C96.2,419.2 95.8,416.6 95,414.6C94.1,412.5 93,410.9 91.5,409.8C90,408.8 88.3,408.2 86.3,408.2C84.3,408.2 82.7,408.7 81.2,409.8C79.7,410.9 78.5,412.5 77.7,414.6C76.9,416.6 76.4,419.2 76.4,422.1C76.4,425 76.9,427.6 77.7,429.6C78.5,431.7 79.7,433.3 81.2,434.4C82.7,435.4 84.4,436 86.3,436ZM125,429L121.4,432.5L121.4,439.1L114,439.1L114,403.5L121.5,403.5L121.5,423.6L132.5,413.3L141.4,413.3L130.6,424.3L142.3,439.1L133.3,439.1L125.1,429L125,429ZM158.7,412.9C161.1,412.9 163.3,413.5 165.2,414.6C167.2,415.6 168.8,417.2 169.9,419.2C171.067,421.345 171.654,423.759 171.6,426.2C171.6,428.8 171,431.2 169.9,433.2C168.807,435.178 167.178,436.807 165.2,437.9C163.3,438.9 161.2,439.5 158.7,439.5C155.2,439.5 152.5,438.4 150.7,436.1L150.7,439.1L143.5,439.1L143.5,403.5L150.9,403.5L150.9,416C152.918,413.874 155.773,412.739 158.7,412.9ZM157.4,433.3C159.4,433.3 160.9,432.7 162.1,431.4C163.4,430.1 164,428.4 164,426.2C164,424 163.4,422.2 162.1,421C160.9,419.7 159.3,419 157.4,419C155.5,419 153.9,419.7 152.7,421C151.5,422.3 150.8,424 150.8,426.2C150.8,428.4 151.5,430.2 152.7,431.4C153.9,432.7 155.5,433.4 157.4,433.4L157.4,433.3Z" style="fill:white;fill-rule:nonzero;"/>
    <path d="M536,20C536,8.962 527.038,0 516,0L20,0C8.962,0 0,8.962 0,20L0,502C0,513.038 8.962,522 20,522L516,522C527.038,522 536,513.038 536,502L536,20Z" style="fill:rgb(145,211,255);fill-opacity:0.3;"/>
    <path d="M436.5,393.7L436.5,128.8C436.391,108.105 419.395,91.109 398.7,91L133.8,91C113.105,91.109 96.109,108.105 96,128.8L96,393.7C96.109,414.395 113.105,431.391 133.8,431.5L398.7,431.5C419.395,431.391 436.391,414.395 436.5,393.7ZM200,289.7L247.3,346.6L313.5,261.3L398.7,374.7L133.8,374.7L200,289.7Z" style="fill:rgb(247,247,247);fill-opacity:0.2;fill-rule:nonzero;"/>
    <path d="M219,329C219,317.962 210.038,309 199,309L20,309C8.962,309 0,317.962 0,329L0,502C0,513.038 8.962,522 20,522L199,522C210.038,522 219,513.038 219,502L219,329Z" style="fill:rgb(255,165,0);"/>
    <path d="M180,471.9L180,359C180,350.1 172.7,342.9 163.9,342.9L51,342.9C42.1,342.9 34.9,350.2 34.9,359L34.9,472C34.9,480.9 42.2,488.1 51,488.1L164,488.1C172.9,488.1 180.1,480.8 180.1,472L180,471.9ZM79.3,427.6L99.4,451.8L127.6,415.5L163.9,463.8L51,463.8L79.2,427.6L79.3,427.6Z" style="fill:rgb(247,247,247);fill-opacity:0.2;fill-rule:nonzero;"/>
    <path d="M64.7,390.4C66.616,390.954 68.322,392.069 69.6,393.6C70.731,395.018 71.332,396.787 71.3,398.6C71.3,400.6 70.8,402.3 69.7,403.8C68.7,405.2 67.2,406.3 65.2,407.1C63.2,407.9 60.9,408.3 58.2,408.3C54.2,408.3 51.1,407.4 48.8,405.7C46.54,404.099 45.224,401.469 45.3,398.7C45.233,396.867 45.798,395.066 46.9,393.6C48.178,392.069 49.884,390.954 51.8,390.4C50.1,389.7 48.8,388.8 47.8,387.5C46.91,386.172 46.456,384.598 46.5,383C46.5,380.3 47.5,378.1 49.7,376.5C52.227,374.783 55.249,373.94 58.3,374.1C60.6,374.1 62.7,374.5 64.5,375.2C66.2,375.9 67.6,376.9 68.6,378.2C69.6,379.5 70.1,381.2 70.1,383C70.1,384.7 69.7,386.2 68.7,387.5C67.671,388.829 66.283,389.835 64.7,390.4ZM50,383C50,384.8 50.7,386.3 52.2,387.4C53.6,388.4 55.7,389 58.2,389C60.7,389 62.9,388.5 64.4,387.4C65.9,386.4 66.6,384.9 66.6,383C66.6,381.1 65.8,379.7 64.3,378.6C62.8,377.5 60.8,376.9 58.3,376.9C55.7,376.9 53.7,377.5 52.2,378.6C50.777,379.604 49.949,381.259 50,383ZM58.3,405.3C61.3,405.3 63.6,404.7 65.3,403.4C66.9,402.2 67.8,400.6 67.8,398.4C67.8,396.2 66.9,394.8 65.2,393.6C63.6,392.4 61.2,391.8 58.2,391.8C55.3,391.8 53,392.4 51.3,393.6C49.683,394.695 48.738,396.548 48.8,398.5C48.8,400.6 49.6,402.3 51.3,403.5C53,404.7 55.3,405.3 58.3,405.3ZM87.3,408.2C84.7,408.2 82.4,407.5 80.3,406.2C78.3,404.7 76.8,402.8 75.6,400.2C74.42,397.314 73.841,394.217 73.9,391.1C73.9,387.6 74.5,384.6 75.6,382.1C76.8,379.4 78.4,377.5 80.4,376.1C82.4,374.7 84.7,374.1 87.4,374.1C89.9,374.1 92.2,374.7 94.2,376.1C96.3,377.5 97.9,379.4 99,382.1C100.226,384.94 100.839,388.007 100.8,391.1C100.8,394.6 100.2,397.6 99,400.2C98.01,402.62 96.343,404.703 94.2,406.2C92.158,407.555 89.75,408.254 87.3,408.2ZM87.3,405C89.3,405 91,404.5 92.5,403.4C94,402.3 95.1,400.7 96,398.6C96.8,396.6 97.2,394 97.2,391.1C97.2,388.2 96.8,385.6 96,383.6C95.1,381.5 94,379.9 92.5,378.8C91,377.8 89.3,377.2 87.3,377.2C85.3,377.2 83.7,377.7 82.2,378.8C80.7,379.9 79.5,381.5 78.7,383.6C77.9,385.6 77.4,388.2 77.4,391.1C77.4,394 77.9,396.6 78.7,398.6C79.5,400.7 80.7,402.3 82.2,403.4C83.7,404.4 85.4,405 87.3,405ZM126,398L122.4,401.5L122.4,408.1L115,408.1L115,372.5L122.5,372.5L122.5,392.6L133.5,382.3L142.4,382.3L131.6,393.3L143.3,408.1L134.3,408.1L126.1,398L126,398ZM159.7,381.9C162.1,381.9 164.3,382.5 166.2,383.6C168.2,384.6 169.8,386.2 170.9,388.2C172.067,390.345 172.654,392.759 172.6,395.2C172.6,397.8 172,400.2 170.9,402.2C169.807,404.178 168.178,405.807 166.2,406.9C164.3,407.9 162.2,408.5 159.7,408.5C156.2,408.5 153.5,407.4 151.7,405.1L151.7,408.1L144.5,408.1L144.5,372.5L151.9,372.5L151.9,385C153.918,382.874 156.773,381.739 159.7,381.9ZM158.4,402.3C160.4,402.3 161.9,401.7 163.1,400.4C164.4,399.1 165,397.4 165,395.2C165,393 164.4,391.2 163.1,390C161.9,388.7 160.3,388 158.4,388C156.5,388 154.9,388.7 153.7,390C152.5,391.3 151.8,393 151.8,395.2C151.8,397.4 152.5,399.2 153.7,400.4C154.9,401.7 156.5,402.4 158.4,402.4L158.4,402.3Z" style="fill:white;fill-rule:nonzero;"/>
    <path d="M149.6,171.8L149.6,239L142.7,239L142.7,178L126.9,178L126.9,171.8L149.6,171.8ZM166.6,239.5C165.197,239.509 163.854,238.928 162.9,237.9C161.9,236.9 161.5,235.7 161.5,234.2C161.466,232.861 161.97,231.564 162.9,230.6C163.9,229.6 165.1,229 166.5,229C167.9,229 169.2,229.5 170.2,230.6C171.2,231.6 171.7,232.7 171.7,234.2C171.7,235.7 171.2,236.9 170.2,237.9C169.2,238.9 168,239.5 166.5,239.5L166.6,239.5ZM233.4,221.3L219.8,221.3L219.8,239L213,239L213,221.3L175,221.3L175,216.3L210.6,171.8L218.3,171.8L184,215.2L213.2,215.2L213.2,199.6L219.9,199.6L219.9,215.2L233.4,215.2L233.4,221.3ZM324.2,186.6C330.6,186.6 335.8,188.5 339.5,192.3C343.4,196.1 345.3,201.8 345.3,209.4L345.3,239L330.3,239L330.3,211.7C330.3,207.7 329.5,204.6 327.7,202.7C326.1,200.6 323.7,199.5 320.5,199.5C317,199.5 314.2,200.7 312.2,203C310.2,205.2 309.2,208.6 309.2,213L309.2,239L294.2,239L294.2,211.7C294.2,203.7 290.9,199.5 284.3,199.5C280.9,199.5 278.1,200.7 276.1,203C274.1,205.2 273.1,208.6 273.1,213L273.1,239L258.1,239L258.1,187.4L272.3,187.4L272.3,193.3C274.22,191.12 276.615,189.41 279.3,188.3C285.49,185.8 292.449,185.981 298.5,188.8C301.4,190.2 303.8,192.3 305.5,195C307.7,192.3 310.3,190.3 313.5,188.8C316.8,187.3 320.3,186.6 324.2,186.6ZM379.2,186.6C384,186.6 388.3,187.7 392.2,189.9C396.2,192.1 399.3,195.2 401.5,199.3C403.8,203.3 404.9,207.9 404.9,213.2C404.9,218.5 403.8,223.2 401.5,227.2C399.3,231.2 396.2,234.2 392.2,236.5C388.223,238.701 383.745,239.837 379.2,239.8C372.1,239.8 366.7,237.5 363,233L363,239L348.6,239L348.6,167.8L363.6,167.8L363.6,192.8C367.637,188.548 373.346,186.279 379.2,186.6ZM376.6,227.5C380.4,227.5 383.6,226.2 386,223.6C388.5,221 389.7,217.6 389.7,213.2C389.7,208.8 388.5,205.4 386,202.8C383.6,200.2 380.4,198.8 376.6,198.8C372.8,198.8 369.6,200.2 367.1,202.8C364.6,205.4 363.4,208.8 363.4,213.2C363.4,217.6 364.6,221 367.1,223.6C369.6,226.2 372.7,227.5 376.6,227.5Z" style="fill:rgb(0,49,82);fill-opacity:0.8;fill-rule:nonzero;"/>
</svg>

<svg xmlns="http://www.w3.org/2000/svg" fill="none" viewBox="0 0 536 522"><rect width="536" height="522" fill="#91D3FF" fill-opacity=".3" rx="20"/><path fill="#F7F7F7" fill-opacity=".2" d="M436.5 393.7V128.8A38 38 0 00398.7 91H133.8A38 38 0 0096 128.8v264.9a38 38 0 0037.8 37.8h264.9a38 38 0 0037.8-37.8zM200 289.7l47.3 56.9 66.2-85.3 85.2 113.4H133.8l66.2-85z"/><rect width="219" height="213" y="309" fill="#FF3385" rx="20"/><path fill="#F7F7F7" fill-opacity=".2" d="M180 471.9V359c0-8.9-7.3-16.1-16.1-16.1H51c-8.9 0-16.1 7.3-16.1 16.1V472c0 8.9 7.3 16.1 16.1 16.1H164c8.9 0 16.1-7.3 16.1-16.1zM79.3 427.6l20.1 24.2 28.2-36.3 36.3 48.3H51l28.2-36.2z"/><path fill="#fff" d="M63.7 421.4a10 10 0 014.9 3.2 7.8 7.8 0 011.7 5c0 2-.5 3.7-1.6 5.2-1 1.4-2.5 2.5-4.5 3.3-2 .8-4.3 1.2-7 1.2-4 0-7.1-.9-9.4-2.6a8.3 8.3 0 01-3.5-7 8 8 0 011.6-5.1 10 10 0 014.9-3.2c-1.7-.7-3-1.6-4-2.9a7.7 7.7 0 01-1.3-4.5c0-2.7 1-4.9 3.2-6.5a14 14 0 018.6-2.4c2.3 0 4.4.4 6.2 1.1 1.7.7 3.1 1.7 4.1 3s1.5 3 1.5 4.8c0 1.7-.4 3.2-1.4 4.5a8.8 8.8 0 01-4 2.9zM49 414c0 1.8.7 3.3 2.2 4.4 1.4 1 3.5 1.6 6 1.6s4.7-.5 6.2-1.6c1.5-1 2.2-2.5 2.2-4.4 0-1.9-.8-3.3-2.3-4.4-1.5-1.1-3.5-1.7-6-1.7-2.6 0-4.6.6-6.1 1.7A5.2 5.2 0 0049 414zm8.3 22.3c3 0 5.3-.6 7-1.9 1.6-1.2 2.5-2.8 2.5-5s-.9-3.6-2.6-4.8c-1.6-1.2-4-1.8-7-1.8-2.9 0-5.2.6-6.9 1.8a5.7 5.7 0 00-2.5 4.9c0 2.1.8 3.8 2.5 5 1.7 1.2 4 1.8 7 1.8zm29 2.9c-2.6 0-4.9-.7-7-2-2-1.5-3.5-3.4-4.7-6a22.9 22.9 0 01-1.7-9.1c0-3.5.6-6.5 1.7-9 1.2-2.7 2.8-4.6 4.8-6 2-1.4 4.3-2 7-2 2.5 0 4.8.6 6.8 2 2.1 1.4 3.7 3.3 4.8 6a22 22 0 011.8 9c0 3.5-.6 6.5-1.8 9.1a13.6 13.6 0 01-4.8 6 12 12 0 01-6.9 2zm0-3.2c2 0 3.7-.5 5.2-1.6s2.6-2.7 3.5-4.8c.8-2 1.2-4.6 1.2-7.5s-.4-5.5-1.2-7.5c-.9-2.1-2-3.7-3.5-4.8-1.5-1-3.2-1.6-5.2-1.6s-3.6.5-5.1 1.6c-1.5 1.1-2.7 2.7-3.5 4.8-.8 2-1.3 4.6-1.3 7.5s.5 5.5 1.3 7.5c.8 2.1 2 3.7 3.5 4.8 1.5 1 3.2 1.6 5.1 1.6zM125 429l-3.6 3.5v6.6H114v-35.6h7.5v20.1l11-10.3h8.9l-10.8 11 11.7 14.8h-9l-8.2-10.1zm33.7-16.1c2.4 0 4.6.6 6.5 1.7 2 1 3.6 2.6 4.7 4.6a14 14 0 011.7 7c0 2.6-.6 5-1.7 7a12 12 0 01-4.7 4.7c-1.9 1-4 1.6-6.5 1.6-3.5 0-6.2-1.1-8-3.4v3h-7.2v-35.6h7.4v12.5a10 10 0 017.8-3.1zm-1.3 20.4c2 0 3.5-.6 4.7-1.9 1.3-1.3 1.9-3 1.9-5.2s-.6-4-1.9-5.2c-1.2-1.3-2.8-2-4.7-2s-3.5.7-4.7 2c-1.2 1.3-1.9 3-1.9 5.2s.7 4 1.9 5.2c1.2 1.3 2.8 2 4.7 2z"/><rect width="536" height="522" fill="#91D3FF" fill-opacity=".3" rx="20"/><path fill="#F7F7F7" fill-opacity=".2" d="M436.5 393.7V128.8A38 38 0 00398.7 91H133.8A38 38 0 0096 128.8v264.9a38 38 0 0037.8 37.8h264.9a38 38 0 0037.8-37.8zM200 289.7l47.3 56.9 66.2-85.3 85.2 113.4H133.8l66.2-85z"/><rect width="219" height="213" y="309" fill="#FF3385" rx="20"/><path fill="#F7F7F7" fill-opacity=".2" d="M180 471.9V359c0-8.9-7.3-16.1-16.1-16.1H51c-8.9 0-16.1 7.3-16.1 16.1V472c0 8.9 7.3 16.1 16.1 16.1H164c8.9 0 16.1-7.3 16.1-16.1zM79.3 427.6l20.1 24.2 28.2-36.3 36.3 48.3H51l28.2-36.2z"/><path fill="#fff" d="M64.7 390.4a10 10 0 014.9 3.2 7.8 7.8 0 011.7 5c0 2-.5 3.7-1.6 5.2-1 1.4-2.5 2.5-4.5 3.3-2 .8-4.3 1.2-7 1.2-4 0-7.1-.9-9.4-2.6a8.3 8.3 0 01-3.5-7 8 8 0 011.6-5.1 10 10 0 014.9-3.2c-1.7-.7-3-1.6-4-2.9a7.7 7.7 0 01-1.3-4.5c0-2.7 1-4.9 3.2-6.5a14 14 0 018.6-2.4c2.3 0 4.4.4 6.2 1.1 1.7.7 3.1 1.7 4.1 3s1.5 3 1.5 4.8c0 1.7-.4 3.2-1.4 4.5a8.8 8.8 0 01-4 2.9zM50 383c0 1.8.7 3.3 2.2 4.4 1.4 1 3.5 1.6 6 1.6s4.7-.5 6.2-1.6c1.5-1 2.2-2.5 2.2-4.4 0-1.9-.8-3.3-2.3-4.4-1.5-1.1-3.5-1.7-6-1.7-2.6 0-4.6.6-6.1 1.7A5.2 5.2 0 0050 383zm8.3 22.3c3 0 5.3-.6 7-1.9 1.6-1.2 2.5-2.8 2.5-5s-.9-3.6-2.6-4.8c-1.6-1.2-4-1.8-7-1.8-2.9 0-5.2.6-6.9 1.8a5.7 5.7 0 00-2.5 4.9c0 2.1.8 3.8 2.5 5 1.7 1.2 4 1.8 7 1.8zm29 2.9c-2.6 0-4.9-.7-7-2-2-1.5-3.5-3.4-4.7-6a22.9 22.9 0 01-1.7-9.1c0-3.5.6-6.5 1.7-9 1.2-2.7 2.8-4.6 4.8-6 2-1.4 4.3-2 7-2 2.5 0 4.8.6 6.8 2 2.1 1.4 3.7 3.3 4.8 6a22 22 0 011.8 9c0 3.5-.6 6.5-1.8 9.1a13.6 13.6 0 01-4.8 6 12 12 0 01-6.9 2zm0-3.2c2 0 3.7-.5 5.2-1.6s2.6-2.7 3.5-4.8c.8-2 1.2-4.6 1.2-7.5s-.4-5.5-1.2-7.5c-.9-2.1-2-3.7-3.5-4.8-1.5-1-3.2-1.6-5.2-1.6s-3.6.5-5.1 1.6c-1.5 1.1-2.7 2.7-3.5 4.8-.8 2-1.3 4.6-1.3 7.5s.5 5.5 1.3 7.5c.8 2.1 2 3.7 3.5 4.8 1.5 1 3.2 1.6 5.1 1.6zM126 398l-3.6 3.5v6.6H115v-35.6h7.5v20.1l11-10.3h8.9l-10.8 11 11.7 14.8h-9l-8.2-10.1zm33.7-16.1c2.4 0 4.6.6 6.5 1.7 2 1 3.6 2.6 4.7 4.6a14 14 0 011.7 7c0 2.6-.6 5-1.7 7a12 12 0 01-4.7 4.7c-1.9 1-4 1.6-6.5 1.6-3.5 0-6.2-1.1-8-3.4v3h-7.2v-35.6h7.4v12.5a10 10 0 017.8-3.1zm-1.3 20.4c2 0 3.5-.6 4.7-1.9 1.3-1.3 1.9-3 1.9-5.2s-.6-4-1.9-5.2c-1.2-1.3-2.8-2-4.7-2s-3.5.7-4.7 2c-1.2 1.3-1.9 3-1.9 5.2s.7 4 1.9 5.2c1.2 1.3 2.8 2 4.7 2z"/><path fill="#003152" fill-opacity=".8" d="M149.6 171.8V239h-6.9v-61h-15.8v-6.2h22.7zm17 67.7a5 5 0 01-3.7-1.6c-1-1-1.4-2.2-1.4-3.7a5 5 0 011.4-3.6c1-1 2.2-1.6 3.6-1.6s2.7.5 3.7 1.6c1 1 1.5 2.1 1.5 3.6s-.5 2.7-1.5 3.7-2.2 1.6-3.7 1.6zm66.7-18.2h-13.5V239H213v-17.7H175v-5l35.6-44.5h7.7L184 215.2h29.2v-15.6h6.7v15.6h13.5v6.1zm90.9-34.7c6.4 0 11.6 1.9 15.3 5.7 3.9 3.8 5.8 9.5 5.8 17.1V239h-15v-27.3c0-4-.8-7.1-2.6-9-1.6-2.1-4-3.2-7.2-3.2-3.5 0-6.3 1.2-8.3 3.5-2 2.2-3 5.6-3 10v26h-15v-27.3c0-8-3.3-12.2-9.9-12.2-3.4 0-6.2 1.2-8.2 3.5-2 2.2-3 5.6-3 10v26h-15v-51.6h14.2v5.9a19 19 0 017-5 24.1 24.1 0 0119.2.5c2.9 1.4 5.3 3.5 7 6.2 2.2-2.7 4.8-4.7 8-6.2 3.3-1.5 6.8-2.2 10.7-2.2zm55 0c4.8 0 9.1 1.1 13 3.3 4 2.2 7.1 5.3 9.3 9.4 2.3 4 3.4 8.6 3.4 13.9 0 5.3-1.1 10-3.4 14-2.2 4-5.3 7-9.3 9.3a26.4 26.4 0 01-13 3.3c-7.1 0-12.5-2.3-16.2-6.8v6h-14.4v-71.2h15v25a20 20 0 0115.6-6.2zm-2.6 40.9c3.8 0 7-1.3 9.4-3.9 2.5-2.6 3.7-6 3.7-10.4s-1.2-7.8-3.7-10.4c-2.4-2.6-5.6-4-9.4-4s-7 1.4-9.5 4-3.7 6-3.7 10.4 1.2 7.8 3.7 10.4c2.5 2.6 5.6 3.9 9.5 3.9z"/></svg>
